src/assets/logo-new.svg

<svg width="271" height="65" viewBox="0 0 271 65" fill="none" xmlns="http://www.w3.org/2000/svg">
<g clip-path="url(#clip0_5334_9807)">
<path d="M92.327 29.3323C91.7413 24.4536 88.0482 21.6509 83.1596 21.6509C77.5835 21.6509 73.3242 25.5907 73.3242 32.4976C73.3242 39.3851 77.5111 43.349 83.1596 43.349C88.576 43.349 91.8428 39.7479 92.327 35.8614L87.8112 35.8422C87.3901 38.0973 85.6139 39.3995 83.2322 39.3995C80.0279 39.3995 77.8496 37.0133 77.8496 32.4973C77.8496 28.1024 79.9943 25.6 83.2663 25.6C85.7104 25.6 87.4723 27.0134 87.8112 29.3319H92.327V29.3323ZM95.5362 43.0589H109.81V39.3754H100.004V34.3321H109.036V30.6535H100.004V25.6195H109.771V21.9362H95.5364V43.0587L95.5362 43.0589ZM130.991 21.9365H126.548V35.2226H126.359L117.244 21.9365H113.324V43.0589H117.792V29.768H117.947L127.134 43.0589H130.992V21.9365H130.991ZM133.871 25.6198H140.338V43.0589H144.752V25.6198H151.219V21.9365H133.871V25.6198ZM154.084 43.0589H168.358V39.3754H158.552V34.3321H167.584V30.6535H158.552V25.6195H168.319V21.9362H154.084V43.0587L154.084 43.0589ZM171.872 43.0589H176.34V35.5709H179.597L183.6 43.0589H188.527L184.04 34.8499C186.446 33.819 187.777 31.723 187.777 28.8386C187.777 24.6422 185.004 21.9365 180.207 21.9365H171.872V43.0589H171.872ZM176.34 31.9845V25.5909H179.35C181.93 25.5909 183.179 26.733 183.179 28.8386C183.179 30.9296 181.93 31.9845 179.369 31.9845H176.34ZM193.421 43.325C194.737 43.325 195.885 42.2215 195.895 40.8517C195.885 39.5012 194.737 38.3976 193.421 38.3976C192.061 38.3976 190.933 39.5012 190.943 40.8517C190.933 42.2215 192.061 43.325 193.421 43.325ZM199.578 43.0587H208.605C213.348 43.0587 215.875 40.5851 215.875 37.2215C215.875 34.0948 213.634 32.207 211.233 32.096V31.8876C213.431 31.3941 215.047 29.8356 215.047 27.3525C215.047 24.1871 212.7 21.9362 208.034 21.9362H199.578V43.0587ZM204.046 39.4092V33.7993H207.787C209.931 33.7993 211.262 35.0338 211.262 36.7759C211.262 38.3684 210.183 39.409 207.685 39.409H204.046V39.4092ZM204.046 30.7743V25.5467H207.439C209.418 25.5467 210.541 26.5682 210.541 28.0928C210.541 29.7675 209.181 30.7743 207.356 30.7743H204.046ZM218.77 43.0584H233.043V39.3749H223.237V34.3316H232.269V30.6531H223.237V25.6191H233.005V21.9358H218.77V43.0582L218.77 43.0584ZM236.557 43.0584H250.832V39.3749H241.025V34.3316H250.057V30.6531H241.025V25.6191H250.793V21.9358H236.558V43.0582L236.557 43.0584ZM254.346 43.0584H258.813V35.5704H262.071L266.074 43.0584H271.001L266.514 34.8494C268.92 33.8186 270.251 31.7225 270.251 28.8381C270.251 24.6418 267.477 21.936 262.681 21.936H254.346V43.0584H254.346ZM258.813 31.9841V25.5905H261.824C264.404 25.5905 265.652 26.7326 265.652 28.8381C265.652 30.9291 264.404 31.9841 261.843 31.9841H258.813Z" fill="white"/>
<path fill-rule="evenodd" clip-rule="evenodd" d="M22.3623 47.8609L39.2436 38.1154L32.8875 34.446L22.362 40.5211V47.8606L22.3623 47.8609ZM9.49846 47.9478L6.35516 49.7617V15.3726C15.1998 20.4758 24.0424 25.5832 32.8864 30.6889L39.3537 26.9557C28.1024 20.459 16.8486 13.9674 5.59896 7.46729L0.000681056 10.699L0 54.5489L5.38738 57.6604L9.49846 55.2872V47.9478Z" fill="#989898"/>
<path fill-rule="evenodd" clip-rule="evenodd" d="M12.7545 3.33619L12.7536 7.84172L19.109 11.5112V7.79972L49.0759 25.0995C44.7644 27.588 40.4531 30.0781 36.1413 32.5664C40.38 35.0127 44.6157 37.4606 48.8525 39.9051L19.109 57.0779C19.109 46.8825 19.109 36.6876 19.109 26.4922L12.7529 22.8228C12.7529 35.8524 12.7529 48.8827 12.7529 61.9124L18.099 65L56.3837 42.8962V36.7873C53.9103 35.3593 51.4362 33.9321 48.9629 32.5042L56.3837 28.2196V21.8518C43.9759 14.6834 31.0901 7.24944 18.534 0C16.6079 1.11259 14.6808 2.22359 12.7545 3.33641V3.33619Z" fill="#F2C247"/>
</g>
<defs>
<clipPath id="clip0_5334_9807">
<rect width="271" height="65" fill="white"/>
</clipPath>
</defs>
</svg>

<svg xmlns="http://www.w3.org/2000/svg" width="271" height="65" fill="none" viewBox="0 0 271 65"><g clip-path="url(#a)"><path fill="#fff" d="M92.327 29.332c-.586-4.878-4.279-7.681-9.167-7.681-5.576 0-9.836 3.94-9.836 10.847 0 6.887 4.187 10.851 9.836 10.851 5.416 0 8.683-3.601 9.167-7.488l-4.516-.019c-.42 2.255-2.197 3.558-4.579 3.558-3.204 0-5.382-2.387-5.382-6.903 0-4.395 2.144-6.897 5.416-6.897 2.444 0 4.206 1.413 4.545 3.732h4.516Zm3.21 13.727h14.273v-3.684h-9.806v-5.043h9.032v-3.678h-9.032v-5.035h9.767v-3.683H95.536V43.06Zm35.454-21.122h-4.443v13.286h-.189l-9.115-13.287h-3.92V43.06h4.468V29.768h.155l9.187 13.29h3.858V21.937h-.001Zm2.88 3.683h6.467v17.439h4.414v-17.44h6.467v-3.683h-17.348v3.684Zm20.213 17.439h14.274v-3.684h-9.806v-5.043h9.032v-3.678h-9.032v-5.035h9.767v-3.683h-14.235V43.06Zm17.788 0h4.468V35.57h3.257l4.003 7.488h4.927l-4.487-8.21c2.406-1.03 3.737-3.126 3.737-6.01 0-4.197-2.773-6.902-7.57-6.902h-8.335v21.122Zm4.468-11.074V25.59h3.01c2.58 0 3.829 1.142 3.829 3.248 0 2.09-1.249 3.146-3.81 3.146h-3.029Zm17.081 11.34c1.316 0 2.464-1.104 2.474-2.473-.01-1.35-1.158-2.454-2.474-2.454-1.36 0-2.488 1.103-2.478 2.454-.01 1.37 1.118 2.473 2.478 2.473Zm6.157-.266h9.027c4.743 0 7.27-2.474 7.27-5.837 0-3.127-2.241-5.015-4.642-5.126v-.208c2.198-.494 3.814-2.052 3.814-4.536 0-3.165-2.347-5.416-7.013-5.416h-8.456V43.06Zm4.468-3.65V33.8h3.741c2.144 0 3.475 1.235 3.475 2.977 0 1.592-1.079 2.633-3.577 2.633h-3.639Zm0-8.635v-5.227h3.393c1.979 0 3.102 1.021 3.102 2.546 0 1.674-1.36 2.681-3.185 2.681h-3.31Zm14.724 12.284h14.273v-3.683h-9.806v-5.043h9.032v-3.679h-9.032V25.62h9.768v-3.683H218.77v21.122Zm17.787 0h14.275v-3.683h-9.807v-5.043h9.032v-3.679h-9.032V25.62h9.768v-3.683h-14.235v21.122h-.001Zm17.789 0h4.467V35.57h3.258l4.003 7.488h4.927l-4.487-8.209c2.406-1.03 3.737-3.126 3.737-6.01 0-4.197-2.774-6.903-7.57-6.903h-8.335v21.122Zm4.467-11.074V25.59h3.011c2.58 0 3.828 1.143 3.828 3.248 0 2.091-1.248 3.146-3.809 3.146h-3.03Z"/><path fill="#989898" fill-rule="evenodd" d="m22.362 47.86 16.882-9.745-6.356-3.669-10.526 6.075v7.34Zm-12.864.088-3.143 1.814v-34.39C15.2 20.477 24.042 25.584 32.886 30.69l6.468-3.733C28.102 20.459 16.849 13.967 5.599 7.467L.001 10.7 0 54.549l5.387 3.111 4.111-2.373v-7.34Z" clip-rule="evenodd"/><path fill="#F2C247" fill-rule="evenodd" d="m12.755 3.336-.001 4.506 6.355 3.67V7.8l29.967 17.3-12.935 7.466c4.239 2.447 8.475 4.895 12.712 7.34L19.108 57.077V26.492l-6.356-3.67v39.09L18.099 65l38.285-22.104v-6.109l-7.421-4.283 7.42-4.284v-6.368C43.977 14.683 31.09 7.249 18.535 0c-1.926 1.113-3.853 2.224-5.78 3.336Z" clip-rule="evenodd"/></g><defs><clipPath id="a"><path fill="#fff" d="M0 0h271v65H0z"/></clipPath></defs></svg>
